assets/efishery/autofeeder.svg

<svg width="24" height="24" viewBox="0 0 24 24" fill="none" xmlns="http://www.w3.org/2000/svg">
<path fill-rule="evenodd" clip-rule="evenodd" d="M8.51442 3.57582C8.5001 3.60494 8.5 3.61852 8.5 3.62208C8.5 3.62564 8.5001 3.63922 8.51442 3.66834C8.53007 3.70017 8.56324 3.75085 8.62955 3.81608C8.76645 3.95073 9.0031 4.10652 9.3561 4.25337C10.0588 4.5457 11.0815 4.74416 12.25 4.74416C13.4185 4.74416 14.4412 4.5457 15.1439 4.25337C15.4969 4.10652 15.7335 3.95073 15.8704 3.81608C15.9368 3.75085 15.9699 3.70017 15.9856 3.66834C15.9999 3.63922 16 3.62564 16 3.62208C16 3.61852 15.9999 3.60494 15.9856 3.57582C15.9699 3.54399 15.9368 3.49331 15.8704 3.42808C15.7335 3.29343 15.4969 3.13764 15.1439 2.99079C14.4412 2.69846 13.4185 2.5 12.25 2.5C11.0815 2.5 10.0588 2.69846 9.3561 2.99079C9.0031 3.13764 8.76645 3.29343 8.62955 3.42808C8.56324 3.49331 8.53007 3.54399 8.51442 3.57582ZM8.77994 1.60585C9.70593 1.22062 10.9332 1 12.25 1C13.5668 1 14.7941 1.22062 15.7201 1.60585C16.1814 1.79778 16.6038 2.04539 16.9223 2.35868C17.2434 2.67454 17.5 3.10191 17.5 3.62208C17.5 3.75099 17.4842 3.8742 17.4557 3.99142C17.4844 4.07094 17.5 4.15669 17.5 4.24611V13.6065C17.5 13.7526 17.4573 13.8955 17.3772 14.0177L16.75 13.6065C17.3772 14.0177 17.3775 14.0173 17.3772 14.0177L17.3762 14.0193L17.375 14.021L17.3723 14.0251L17.3655 14.0352C17.3603 14.0428 17.3537 14.0522 17.3458 14.0633C17.3301 14.0854 17.3089 14.1141 17.2821 14.1484C17.2286 14.217 17.1524 14.3084 17.0517 14.4147C17.0172 14.4511 16.9798 14.4893 16.9394 14.529L12.8145 19.2438C12.672 19.4066 12.4663 19.5 12.25 19.5C12.0337 19.5 11.828 19.4066 11.6855 19.2438L7.56056 14.529C7.5202 14.4893 7.48281 14.4511 7.44831 14.4147C7.34765 14.3084 7.27143 14.217 7.21787 14.1484C7.19108 14.1141 7.16992 14.0854 7.15415 14.0633C7.14627 14.0522 7.13973 14.0428 7.13451 14.0352L7.12766 14.0251L7.12497 14.021L7.12381 14.0193C7.12355 14.0189 7.12277 14.0177 7.75 13.6065L7.12277 14.0177C7.04267 13.8955 7 13.7526 7 13.6065V4.24611C7 4.15669 7.01565 4.07094 7.04435 3.99142C7.01576 3.8742 7 3.75099 7 3.62208C7 3.10191 7.25658 2.67454 7.57771 2.35868C7.89623 2.04539 8.3186 1.79778 8.77994 1.60585ZM8.5 5.51235V13.3247L8.64867 13.4947C8.77786 13.6176 8.95437 13.7652 9.18312 13.9148C9.78285 14.3069 10.7662 14.7286 12.25 14.7286C13.7338 14.7286 14.7171 14.3069 15.3169 13.9148C15.5456 13.7652 15.7221 13.6176 15.8513 13.4947L16 13.3247V5.51235C15.9087 5.55676 15.8152 5.59872 15.7201 5.63831C14.7941 6.02354 13.5668 6.24416 12.25 6.24416C10.9332 6.24416 9.70593 6.02354 8.77994 5.63831C8.68478 5.59872 8.59128 5.55676 8.5 5.51235ZM13.5436 16.1324C13.1468 16.1937 12.7161 16.2286 12.25 16.2286C11.7839 16.2286 11.3532 16.1937 10.9564 16.1324L12.25 17.611L13.5436 16.1324Z" fill="#1D1D1D"/>
<path fill-rule="evenodd" clip-rule="evenodd" d="M7.49967 20.7547C7.49962 20.7547 7.49966 20.7539 7.49994 20.7525L7.49967 20.7547ZM7.50048 20.75C7.50493 20.7318 7.53143 20.6604 7.67116 20.5402C7.85598 20.3813 8.16731 20.2042 8.61722 20.0406C9.51088 19.7157 10.7952 19.5 12.25 19.5C13.7048 19.5 14.9891 19.7157 15.8828 20.0406C16.3327 20.2042 16.644 20.3813 16.8288 20.5402C16.9686 20.6604 16.9951 20.7318 16.9995 20.75C16.9951 20.7682 16.9686 20.8396 16.8288 20.9598C16.644 21.1187 16.3327 21.2958 15.8828 21.4594C14.9891 21.7843 13.7048 22 12.25 22C10.7952 22 9.51088 21.7843 8.61722 21.4594C8.16731 21.2958 7.85598 21.1187 7.67116 20.9598C7.53143 20.8396 7.50493 20.7682 7.50048 20.75ZM17.0003 20.7547C17.0003 20.7547 17.0001 20.7539 17.0001 20.7525L17.0003 20.7547ZM17.0001 20.7475C17.0001 20.7461 17.0003 20.7453 17.0003 20.7453L17.0001 20.7475ZM7.49994 20.7475C7.49966 20.7461 7.49962 20.7453 7.49967 20.7453L7.49994 20.7475ZM8.10461 18.6309C9.20156 18.232 10.6673 18 12.25 18C13.8327 18 15.2984 18.232 16.3954 18.6309C16.9408 18.8293 17.4349 19.0831 17.8067 19.4028C18.1761 19.7204 18.5 20.173 18.5 20.75C18.5 21.327 18.1761 21.7796 17.8067 22.0972C17.4349 22.4169 16.9408 22.6707 16.3954 22.8691C15.2984 23.268 13.8327 23.5 12.25 23.5C10.6673 23.5 9.20156 23.268 8.10461 22.8691C7.55921 22.6707 7.06508 22.4169 6.69328 22.0972C6.3239 21.7796 6 21.327 6 20.75C6 20.173 6.3239 19.7204 6.69328 19.4028C7.06508 19.0831 7.55921 18.8293 8.10461 18.6309Z" fill="#1D1D1D"/>
<path fill-rule="evenodd" clip-rule="evenodd" d="M16.6793 13.255C16.9527 13.216 17.2059 13.4059 17.245 13.6793L18.245 20.6793C18.284 20.9527 18.0941 21.2059 17.8207 21.245C17.5473 21.284 17.2941 21.0941 17.255 20.8207L16.255 13.8207C16.216 13.5473 16.4059 13.2941 16.6793 13.255Z" fill="#1D1D1D"/>
<path fill-rule="evenodd" clip-rule="evenodd" d="M7.82071 13.255C8.09408 13.2941 8.28403 13.5473 8.24497 13.8207L7.24497 20.8207C7.20592 21.0941 6.95266 21.284 6.67929 21.245C6.40592 21.2059 6.21597 20.9527 6.25503 20.6793L7.25503 13.6793C7.29408 13.4059 7.54734 13.216 7.82071 13.255Z" fill="#1D1D1D"/>
<path fill-rule="evenodd" clip-rule="evenodd" d="M11.75 22.75V14.75H12.75V22.75H11.75Z" fill="#1D1D1D"/>
</svg>

<svg viewBox="0 0 24 24" xmlns="http://www.w3.org/2000/svg">
  <path fill-rule="evenodd" clip-rule="evenodd" d="M8.514 3.576a.105.105 0 0 0-.014.046c0 .004 0 .017.014.046a.574.574 0 0 0 .116.148c.136.135.373.29.726.437.703.293 1.726.491 2.894.491 1.168 0 2.191-.198 2.894-.49.353-.147.59-.303.726-.438a.574.574 0 0 0 .116-.148.105.105 0 0 0 .014-.046c0-.003 0-.017-.014-.046a.574.574 0 0 0-.116-.148c-.136-.135-.373-.29-.726-.437-.703-.293-1.726-.491-2.894-.491-1.168 0-2.191.198-2.894.49-.353.148-.59.303-.726.438a.574.574 0 0 0-.116.148zm.266-1.97C9.706 1.22 10.933 1 12.25 1c1.317 0 2.544.22 3.47.606.461.192.884.44 1.202.753.321.316.578.743.578 1.263 0 .129-.016.252-.044.37.028.079.044.165.044.254v9.36a.75.75 0 0 1-.123.412l-.627-.412c.627.412.628.411.627.412v.001l-.002.002-.003.004-.006.01a1.929 1.929 0 0 1-.084.113 3.69 3.69 0 0 1-.343.381l-4.124 4.715a.75.75 0 0 1-1.13 0l-4.124-4.715a4.574 4.574 0 0 1-.343-.38 2.464 2.464 0 0 1-.083-.114l-.007-.01-.003-.004-.001-.002s-.001-.001.626-.412l-.627.41a.75.75 0 0 1-.123-.41v-9.36c0-.09.016-.176.044-.256A1.554 1.554 0 0 1 7 3.622c0-.52.257-.947.578-1.263.318-.314.74-.561 1.202-.753zM8.5 5.512v7.813l.149.17c.129.123.305.27.534.42.6.392 1.583.814 3.067.814 1.484 0 2.467-.422 3.067-.814a3.77 3.77 0 0 0 .534-.42l.149-.17V5.512a5.275 5.275 0 0 1-.28.126c-.926.386-2.153.606-3.47.606-1.317 0-2.544-.22-3.47-.606a5.247 5.247 0 0 1-.28-.126zm5.044 10.62a8.464 8.464 0 0 1-1.294.097c-.466 0-.897-.035-1.294-.097l1.294 1.479 1.294-1.479z"/>
  <path fill-rule="evenodd" clip-rule="evenodd" d="M7.5 20.755v-.002.002zm0-.005c.005-.018.031-.09.171-.21.185-.159.496-.336.946-.5.894-.324 2.178-.54 3.633-.54s2.74.216 3.633.54c.45.164.761.341.946.5.14.12.166.192.17.21-.004.018-.03.09-.17.21-.185.159-.496.336-.946.5-.894.324-2.178.54-3.633.54s-2.74-.216-3.633-.54c-.45-.164-.761-.341-.946-.5-.14-.12-.166-.192-.17-.21zm9.5.005v-.002.002zm0-.008a.01.01 0 0 1 0-.002v.002zm-9.5 0v-.002.002zm.605-2.116C9.202 18.232 10.667 18 12.25 18c1.583 0 3.048.232 4.145.63.546.2 1.04.453 1.412.773.37.317.693.77.693 1.347s-.324 1.03-.693 1.347c-.372.32-.866.574-1.412.772-1.097.399-2.562.631-4.145.631-1.583 0-3.048-.232-4.145-.63-.546-.2-1.04-.453-1.412-.773-.37-.317-.693-.77-.693-1.347s.324-1.03.693-1.347c.372-.32.866-.574 1.412-.772z"/>
  <path fill-rule="evenodd" clip-rule="evenodd" d="M16.68 13.255a.5.5 0 0 1 .565.424l1 7a.5.5 0 0 1-.99.142l-1-7a.5.5 0 0 1 .424-.566zM7.82 13.255a.5.5 0 0 1 .425.566l-1 7a.5.5 0 0 1-.99-.142l1-7a.5.5 0 0 1 .566-.424zM11.75 22.75v-8h1v8h-1z"/>
</svg>
